X: 1
T:Evans' Jigg
R:Jig
O:Wales
M:6/8
K:Am
e| a>ba ^g^fg | a3 f>gf | e>fe d>cd \
|1 e>de A2e :|2 e3-e3 :: e|\
g>ag geg | f>gf fdf | e>fe d>ec | B>AG G2d |\
g>ag f>gf | e>fe d>ec | B>cA A>B^G | A3-A2 :|
